X: 1
T: Glencoe March
T: Glencoe Bridge March
C: Dan R. MacDonal
B: BSFC Session Tune Book 2016 p.54
B: BSFC Tune Book IV-22
R: march
Z: 2019 John Chambers <jc:trillian.mit.edu>
M: 4/4
L: 1/8
K: D
FG |\
"D"A2 d2 F2 d2 | "D"A<F A<d f3a | "A7"~g3e ~c>A c<e |\
[1,3 "A"d>c d>B A2 :|2,4 "D"d4 d2 :|
|: fg |\
"D"{fg}a3g f>d f<a | "A7"g3e ~c>A c<e | "D"d>c d>e f>d f<a | "G"g>f g<b "A/c#"a2 ||
[1 fg |\
"D"{fg}a3g f>d f<a | "A7"g3e ~c>A c<e | "D"d>c d>f "A"e<a c<e | "D"d4 d2 :|
%fg |\
%"D"{fg}a3g f>d f<a | "A7"g3e ~c>A c<e | "D"d>c d>e f>d f<a | "G"g>f g<b "A/c#"a2 ||
[2 fg |\
"D"(3agf ~g>e f>d e<c | d>B A>F D>F A>d | "Em"B>G B<d "A7"c>A c<e | "D"d4 d2 |]


